**kern	**kern	**dynam
*part1	*part1	*part1
*staff2	*staff1	*
*I"Piano	*	*
*clefF4	*clefG2	*
*k[f#c#]	*k[f#c#]	*
=1	=1	=1
*^	*	*
2D#X 2F# 2B	2AA	2r	.
=	=	=	=
2E 2G 2B	2AA	2r	.
=	=	=	=
2E 2G 2B	2AA	2e	.
=	=	=	=
2G 2A	2AA 2C# 2E	4e	.
.	.	4A)	.
=	=	=	=
2F# 2A	2DD 2AA 2D	2d 2f#	f
=	=	=	=
2E 2A	((2CC# 2AA 2C#	(2e	f <
*v	*v	*	*
=	=	=
8BBBL)) 8BB	8dL 8e 8g#X 8dd	.
8BBB 8BB	8d 8e 8g# 8dd	.
8.BBB 8.BB	8.d 8.e 8.g# 8.dd	[ >
16AAAJk 16AA	16c#Jk) 16e 16a 16cc#	.
=	=	=
2EE	4c# 4e 4a 4cc#	.
.	4B 4e 4g#X 4b	.
=	=	=
[2E	[2B [2e [2gn	] p
=	=	=
*-	*-	*-
!!!system-decoration: {(s1,s2)}
